communes/302.svg

<?xml version="1.0" encoding="UTF-8" standalone="no"?>
<svg
   xmlns:dc="http://purl.org/dc/elements/1.1/"
   xmlns:cc="http://web.resource.org/cc/"
   xmlns:rdf="http://www.w3.org/1999/02/22-rdf-syntax-ns#"
   xmlns:svg="http://www.w3.org/2000/svg"
   xmlns="http://www.w3.org/2000/svg"
   xmlns:xlink="http://www.w3.org/1999/xlink"
   xmlns:sodipodi="http://sodipodi.sourceforge.net/DTD/sodipodi-0.dtd"
   xmlns:inkscape="http://www.inkscape.org/namespaces/inkscape"
   height="763"
   width="603"
   version="1.0"
   id="svg20"
   sodipodi:version="0.32"
   inkscape:version="0.44.1"
   sodipodi:docname="Bargen-coat of arms.svg"
   sodipodi:docbase="F:\Mis Documentos\Mis imágenes\Encyclopédie\Escudos de Suiza">
  <metadata
     id="metadata31">
    <rdf:RDF>
      <cc:Work
         rdf:about="">
        <dc:format>image/svg+xml</dc:format>
        <dc:type
           rdf:resource="http://purl.org/dc/dcmitype/StillImage" />
        <dc:date>07-AUG-2006</dc:date>
        <dc:creator>
          <cc:Agent>
            <dc:title>Jérôme BLUM (wagner51)</dc:title>
          </cc:Agent>
        </dc:creator>
        <cc:license
           rdf:resource="http://creativecommons.org/licenses/GPL/2.0/" />
        <dc:coverage />
        <dc:description>Gabarit pour le Projet:Blasons de WIkipédia</dc:description>
        <dc:subject>
          <rdf:Bag>
            <rdf:li>blason suisse modèle gabarit projet blasons</rdf:li>
          </rdf:Bag>
        </dc:subject>
        <dc:language>fr</dc:language>
        <dc:title>Gabrit d'un blason suisse</dc:title>
      </cc:Work>
      <cc:License
         rdf:about="http://creativecommons.org/licenses/GPL/2.0/">
        <cc:permits
           rdf:resource="http://web.resource.org/cc/Reproduction" />
        <cc:permits
           rdf:resource="http://web.resource.org/cc/Distribution" />
        <cc:requires
           rdf:resource="http://web.resource.org/cc/Notice" />
        <cc:permits
           rdf:resource="http://web.resource.org/cc/DerivativeWorks" />
        <cc:requires
           rdf:resource="http://web.resource.org/cc/ShareAlike" />
        <cc:requires
           rdf:resource="http://web.resource.org/cc/SourceCode" />
      </cc:License>
    </rdf:RDF>
  </metadata>
  <defs
     id="defs29">
    <linearGradient
       id="linearGradient2893">
      <stop
         style="stop-color:#ffffff;stop-opacity:0.3137255;"
         offset="0"
         id="stop2895" />
      <stop
         id="stop2897"
         offset="0.19"
         style="stop-color:#ffffff;stop-opacity:0.25098041;" />
      <stop
         style="stop-color:#6b6b6b;stop-opacity:0.1254902;"
         offset="0.60000002"
         id="stop2901" />
      <stop
         style="stop-color:#000000;stop-opacity:0.1254902;"
         offset="1"
         id="stop2899" />
    </linearGradient>
    <linearGradient
       id="linearGradient2955">
      <stop
         style="stop-color:white;stop-opacity:0;"
         offset="0"
         id="stop2965" />
      <stop
         style="stop-color:black;stop-opacity:0.64583331;"
         offset="1"
         id="stop2959" />
    </linearGradient>
    <radialGradient
       inkscape:collect="always"
       xlink:href="#linearGradient2893"
       id="radialGradient3236"
       gradientUnits="userSpaceOnUse"
       gradientTransform="matrix(1.215027,1.531577e-24,1.464684e-23,1.266667,-839.1924,-490.4894)"
       cx="858.04236"
       cy="579.93323"
       fx="858.04236"
       fy="579.93323"
       r="300" />
  </defs>
  <sodipodi:namedview
     inkscape:window-height="682"
     inkscape:window-width="1024"
     inkscape:pageshadow="2"
     inkscape:pageopacity="0.0"
     guidetolerance="10.0"
     gridtolerance="10.0"
     objecttolerance="10.0"
     borderopacity="1.0"
     bordercolor="#666666"
     pagecolor="#ffffff"
     id="base"
     inkscape:zoom="0.50206639"
     inkscape:cx="695.40835"
     inkscape:cy="376.37345"
     inkscape:window-x="-4"
     inkscape:window-y="-4"
     inkscape:current-layer="layer2"
     showgrid="true"
     showguides="true"
     inkscape:guide-bbox="true" />
  <desc
     id="desc22">Coat of Arms of Canton of Freiburg (Fribourg)</desc>
  <g
     inkscape:groupmode="layer"
     id="layer1"
     inkscape:label="Fond écu"
     sodipodi:insensitive="true">
    <path
       id="path1899"
       d="M 1.5,1.49998 L 1.5,460.3679 C 1.5,626.6785 135.81456,761.5 301.49999,761.5 C 467.18543,761.5 601.5,626.6785 601.5,460.3679 L 601.5,1.49998 L 1.5,1.49998 z "
       style="fill:#e20909;fill-opacity:1" />
  </g>
  <g
     inkscape:groupmode="layer"
     id="layer2"
     inkscape:label="Meubles"
     sodipodi:insensitive="true">
    <g
       id="g12612"
       transform="matrix(4.274353,0,0,4.274353,-2625.826,-2447.092)">
      <path
         sodipodi:nodetypes="cssccccccccccccc"
         id="path5489"
         d="M 654.19788,624.47056 C 654.19788,624.47056 646.93502,620.8155 641.87162,617.06419 C 635.95857,612.6834 628.38962,614.21154 626.87162,619.60425 C 623.21629,632.58986 616.70775,635.08541 617.59363,644.20319 L 626.60425,642.59894 L 617.59363,644.20319 L 617.72732,656.52944 C 624.26865,655.00481 629.03393,651.70414 632.72732,647.33156 L 626.60425,642.59894 L 626.73793,639.47056 L 630.53475,640.00531 C 630.18119,634.4237 630.50647,628.94653 634.73263,624.0695 C 637.96167,629.67441 639.12627,636.16408 644.59894,640.80743 L 655,623 L 655,623 L 654.19788,624.47056 z "
         style="fill:white;fill-opacity:1;fill-rule:evenodd;stroke:black;stroke-width:1px;stroke-linecap:butt;stroke-linejoin:miter;stroke-opacity:1" />
      <path
         sodipodi:nodetypes="csccsccccccscc"
         id="path2828"
         d="M 718.39575,669.60425 C 735.36967,644.57596 754.733,660.41755 751.93285,674.63933 C 749.08817,689.08734 734.9899,698.32692 745,708 C 744.12123,709.39755 742.65364,709.61745 741.0695,709.60425 C 735.35333,700.47483 738.58009,690.89947 742.69603,680.85598 C 746.18853,672.33376 749.43487,659.08082 730,663 C 749.483,659.12609 745.80898,672.25704 742.69603,680.85598 C 738.65274,690.95025 735.35737,700.37815 741.0695,709.60425 C 739.803,710.13721 738.68316,710.96348 736.73793,710.139 C 732.27289,704.93577 733.86999,698.68054 734.59894,692.59894 C 733.82915,698.74218 732.36487,705.02432 736.73793,710.139 C 728.62781,710.61245 726.07313,698.37431 730.49369,689.48099 C 740.07373,670.20775 733.20735,662.78167 720,673 L 718.39575,669.60425 z "
         style="fill:white;fill-opacity:1;fill-rule:evenodd;stroke:black;stroke-width:1px;stroke-linecap:butt;stroke-linejoin:miter;stroke-opacity:1" />
      <path
         sodipodi:nodetypes="cccc"
         id="path8150"
         d="M 687.20391,583.90547 C 687.63351,582.51076 687.80669,581.75565 687.52734,580 C 682.11711,580.22045 680.11456,582.70917 676.75625,585.52734 C 681.50643,587.43465 683.17703,586.72042 687.20391,583.90547 z "
         style="fill:white;fill-opacity:1;fill-rule:evenodd;stroke:black;stroke-width:1px;stroke-linecap:butt;stroke-linejoin:miter;stroke-opacity:1" />
      <path
         sodipodi:nodetypes="cccccccccccccccccccc"
         id="path7263"
         d="M 687.00531,590.72732 C 696.47128,603.1117 689.21695,614.80255 683.26207,626.60956 L 690.58832,624.60425 L 693.16754,620.16194 L 687.94112,617.06419 L 693.16754,620.16194 C 694.23701,618.35934 694.76781,616.74581 695.61306,614.47056 L 689.41168,613.13369 L 695.61306,614.47056 C 696.06486,612.31989 696.95251,610.1324 697.15521,607.73263 L 691.01593,606.39575 L 697.15521,607.73263 C 697.64549,605.33511 697.73187,603.03211 697.54006,600.54006 L 691.14962,600.861 L 697.54006,600.54006 C 697.21068,598.23144 696.74668,596.01257 695.66844,594.20319 L 690.2138,595.32625 L 695.66844,594.20319 C 694.26359,591.48929 692.14558,589.72626 690,588 L 687.00531,590.72732 z "
         style="fill:white;fill-opacity:1;fill-rule:evenodd;stroke:black;stroke-width:1px;stroke-linecap:butt;stroke-linejoin:miter;stroke-opacity:1" />
      <path
         sodipodi:nodetypes="cccccccccccc"
         id="path6376"
         d="M 735.74855,613.93581 C 737.95937,610.40637 740.86975,604.06949 738.26206,597.06419 C 737.6061,599.69701 735.41907,600.79874 733.79681,602.46525 L 715,618 L 733.79681,602.46525 C 735.62433,599.49088 737.49043,589.70854 734.73263,586.12838 C 734.30481,588.90021 732.32681,590.12185 730.93581,591.9305 L 700,623 L 730.93581,591.9305 C 732.10529,585.68575 731.5014,580.77103 728.39575,577.73263 C 718.35943,596.9971 701.19434,605.148 690,624.87162 C 706.29594,622.69134 721.22244,618.59384 735.74855,613.93581 z "
         style="fill:white;fill-opacity:1;fill-rule:evenodd;stroke:black;stroke-width:1px;stroke-linecap:butt;stroke-linejoin:miter;stroke-opacity:1" />
      <path
         sodipodi:nodetypes="ccccccccccccc"
         id="path3715"
         d="M 694.14431,697.67906 C 689.64038,701.24511 689.48511,703.61976 689.06419,707.86631 C 681.43969,712.05016 670.31749,711.09032 668.12838,723.26737 C 666.43133,722.06152 664.29157,721.07703 663.9305,719.20319 L 661.73793,722.19788 L 650.40106,721.79681 L 661.73793,722.19788 L 664.06419,731.79681 C 657.70946,734.9595 650.28523,733.83534 645,733 L 650.40106,721.79681 C 652.13504,712.02709 665.05756,712.43058 677.00531,702.06419 C 663.36847,691.64937 669.37004,681.7479 680.2138,673.53475 C 693.4137,675.32599 693.75442,686.02826 694.14431,697.67906 z "
         style="fill:white;fill-opacity:1;fill-rule:evenodd;stroke:black;stroke-width:1px;stroke-linecap:butt;stroke-linejoin:miter;stroke-opacity:1" />
      <path
         sodipodi:nodetypes="cccc"
         id="path4602"
         d="M 692.67375,681.39575 C 693.63266,690.62314 679.50191,689.35843 684.23955,681.85203 L 677.67375,675.139 C 683.33005,674.59937 688.34526,676.62414 692.67375,681.39575 z "
         style="fill:white;fill-opacity:1;fill-rule:evenodd;stroke:black;stroke-width:1px;stroke-linecap:butt;stroke-linejoin:miter;stroke-opacity:1" />
      <path
         sodipodi:nodetypes="csccccccccccccccccccccccccsccccccccccccccccccccccccccccccccccc"
         id="path1939"
         d="M 722.45781,705.26875 C 702.91436,691.95146 737.43193,671.39668 706.33119,662.57661 C 700.67134,660.97149 694.40313,658.82459 686.21875,651.67656 C 682.66753,651.09891 679.87869,650.6405 676.78594,649.89062 C 679.97389,650.75065 682.55043,651.11335 686.21875,651.67656 C 711.27738,650.39069 730.28668,660.45225 746.13437,635.35313 L 738.52944,637.59894 C 722.39436,644.22485 704.40926,642.3655 687.45994,644.87162 C 704.49242,642.48776 722.49196,644.29449 738.52944,637.59894 C 745.68363,632.79226 751.55923,626.45626 751.84984,619.2766 C 749.80723,620.73711 747.76462,621.58799 745.72201,622.41168 C 726.55339,632.904 706.70362,633.17903 687.19257,638.53475 C 706.65175,633.1422 726.64094,632.9492 745.72201,622.41168 C 749.01009,617.47582 752.78693,612.80313 751.60425,605.45994 C 728.90738,629.08634 681.62456,625.52818 675,638 C 681.65488,625.60209 728.79854,629.0083 751.60425,605.45994 C 730.49533,616.38472 707.26096,620.08298 684.46525,625.27268 C 668.52874,628.2838 669.06191,634.65993 669.19788,641.07481 C 669.086,634.67678 668.60748,628.19905 684.46525,625.27268 C 687.97594,614.82539 697.80979,606.3543 687.861,590.32625 C 690.58701,588.45332 692.45219,585.71957 693.39575,582.06419 C 689.69029,582.53206 685.90681,582.21976 682.54006,586.07481 C 675.94773,585.53535 667.61802,578.33597 662.94112,585.139 C 654.34477,585.58052 639.93814,571.37005 638.60956,590.139 C 643.46318,590.29557 648.71632,589.73299 650.13369,596.07481 L 639.73263,597.73263 C 641.55026,600.53332 643.0425,603.65319 648.04826,600.72732 C 652.8754,597.90586 657.06447,602.90099 662.77576,603.00016 C 664.17949,605.19187 664.80434,607.5783 670.29392,608.74855 C 674.65736,609.25977 678.5706,607.62512 680,603 C 678.61955,607.62614 674.72296,609.2213 670.29392,608.74855 C 670.75574,622.34908 651.29022,614.30043 649.86631,630.67375 C 640.55736,634.48847 644.22605,641.76389 645,648.26738 C 647.55972,645.30123 650.08974,645.36537 652.59363,644.47056 C 650.06242,645.41451 647.53121,645.36972 645,648.26738 C 640.8788,652.7629 636.23394,660.35909 632.05888,662.41168 C 625.15226,666.02338 624.8689,672.41129 630,678 C 639.25933,691.35123 633.2883,693.90472 638.52944,697.59894 L 645.13369,689.33687 L 638.52944,697.59894 L 649.33156,706.9305 C 651.39554,701.56254 653.42477,696.17879 651.65782,689.0695 L 645.13369,689.33687 L 643.2085,686.2085 L 648.07481,685.27268 C 642.75151,680.74975 628.87139,671.09648 645,668 L 656.33687,665.72732 C 660.42124,664.3604 661.68716,660.84898 661.47056,656.26207 C 661.69221,660.86682 660.38517,664.32504 656.33687,665.72732 C 665.65853,677.63492 672.89627,669.75143 690.53475,679.73793 L 690.93581,676.87693 L 690.53475,679.73793 C 685.91216,699.59845 697.739,702.01185 707.139,707.86631 C 698.28065,730.12883 693.06173,724.45895 692.05888,733.80212 L 703.52944,734.0695 L 692.05888,733.80212 L 685.53475,744.20319 C 692.06605,746.68097 698.78064,746.2261 705.66844,743 L 703.52944,734.0695 L 704.59894,729.60425 L 709.11006,731.9115 C 708.30126,720.03409 713.4426,715.20573 722.45781,705.26875 z "
         style="fill:white;fill-opacity:1;fill-rule:evenodd;stroke:black;stroke-width:1px;stroke-linecap:butt;stroke-linejoin:miter;stroke-opacity:1" />
      <path
         sodipodi:nodetypes="ccc"
         id="path9041"
         d="M 647.53259,585.66595 C 647.86863,581.81771 647.23297,585.99535 645.04454,587.47265 C 647.16567,586.23745 646.81829,586.71107 647.53259,585.66595 z "
         style="fill:white;fill-opacity:1;fill-rule:evenodd;stroke:black;stroke-width:1px;stroke-linecap:butt;stroke-linejoin:miter;stroke-opacity:1" />
      <path
         sodipodi:nodetypes="cccccc"
         id="path10815"
         d="M 669.1875,587.96875 C 668.39652,590.15475 669.95588,591.15983 671.87734,591.62266 C 672.20954,589.54297 671.9797,590.23043 672.48516,588.93516 L 669.45313,588.08828 C 666.98725,588.78629 669.31396,588.02531 669.28125,588 L 669.1875,587.96875 z "
         style="fill:black;fill-opacity:1;fill-rule:nonzero;stroke:black;stroke-width:1;stroke-miterlimit:4;stroke-dasharray:none;stroke-opacity:1" />
      <path
         sodipodi:nodetypes="cccccc"
         id="path9928"
         d="M 665.18906,586.62188 L 669.28359,588 C 669.78332,589.2737 669.66822,590.72307 671.81094,591.52734 C 671.49899,590.55218 670.89527,589.47976 671.33828,588.75625 L 679,590 C 675.50942,593.78721 667.99568,598.70977 665.18906,586.62188 z "
         style="fill:white;fill-opacity:1;fill-rule:evenodd;stroke:black;stroke-width:1px;stroke-linecap:butt;stroke-linejoin:miter;stroke-opacity:1" />
    </g>
  </g>
  <g
     inkscape:groupmode="layer"
     id="layer3"
     inkscape:label="Reflet final"
     style="display:inline"
     sodipodi:insensitive="true">
    <path
       style="fill:url(#radialGradient3236);fill-opacity:1"
       d="M 1.5,1.5 L 1.5,460.3679 C 1.5,626.67854 135.81454,761.5 301.49993,761.5 C 467.1854,761.5 601.5,626.67854 601.5,460.3679 L 601.5,1.5 L 1.5,1.5 z "
       id="path2346" />
  </g>
  <g
     inkscape:groupmode="layer"
     id="layer4"
     inkscape:label="Contour final"
     style="display:inline"
     sodipodi:insensitive="true">
    <path
       style="fill:none;fill-opacity:1;stroke:#000000;stroke-width:3;stroke-miterlimit:4;stroke-dasharray:none;stroke-opacity:1"
       d="M 1.5,1.5 L 1.5,460.36794 C 1.5,626.67854 135.81454,761.5 301.49993,761.5 C 467.1854,761.5 601.5,626.67854 601.5,460.36794 L 601.5,1.5 L 1.5,1.5 z "
       id="path3239" />
  </g>
</svg>

<?xml version="1.0" encoding="UTF-8"?>
<svg version="1.0" viewBox="0 0 603 763" xmlns="http://www.w3.org/2000/svg" xmlns:cc="http://web.resource.org/cc/" xmlns:dc="http://purl.org/dc/elements/1.1/" xmlns:rdf="http://www.w3.org/1999/02/22-rdf-syntax-ns#" xmlns:xlink="http://www.w3.org/1999/xlink">
<metadata>
<rdf:RDF>
<cc:Work rdf:about="">
<dc:format>image/svg+xml</dc:format>
<dc:type rdf:resource="http://purl.org/dc/dcmitype/StillImage"/>
<dc:date>07-AUG-2006</dc:date>
<dc:creator>
<cc:Agent>
<dc:title>Jérôme BLUM (wagner51)</dc:title>
</cc:Agent>
</dc:creator>
<cc:license rdf:resource="http://creativecommons.org/licenses/GPL/2.0/"/>
<dc:coverage/>
<dc:description>Gabarit pour le Projet:Blasons de WIkipédia</dc:description>
<dc:subject>
<rdf:Bag>
<rdf:li>blason suisse modèle gabarit projet blasons</rdf:li>
</rdf:Bag>
</dc:subject>
<dc:language>fr</dc:language>
<dc:title>Gabrit d'un blason suisse</dc:title>
</cc:Work>
<cc:License rdf:about="http://creativecommons.org/licenses/GPL/2.0/">
<cc:permits rdf:resource="http://web.resource.org/cc/Reproduction"/>
<cc:permits rdf:resource="http://web.resource.org/cc/Distribution"/>
<cc:requires rdf:resource="http://web.resource.org/cc/Notice"/>
<cc:permits rdf:resource="http://web.resource.org/cc/DerivativeWorks"/>
<cc:requires rdf:resource="http://web.resource.org/cc/ShareAlike"/>
<cc:requires rdf:resource="http://web.resource.org/cc/SourceCode"/>
</cc:License>
</rdf:RDF>
</metadata>
<defs>
<radialGradient id="a" cx="858.04" cy="579.93" r="300" gradientTransform="matrix(1.215 1.5316e-24 1.4647e-23 1.2667 -839.19 -490.49)" gradientUnits="userSpaceOnUse">
<stop stop-color="#fff" stop-opacity=".31373" offset="0"/>
<stop stop-color="#fff" stop-opacity=".25098" offset=".19"/>
<stop stop-color="#6b6b6b" stop-opacity=".12549" offset=".6"/>
<stop stop-opacity=".12549" offset="1"/>
</radialGradient>
</defs>
<desc>Coat of Arms of Canton of Freiburg (Fribourg)</desc>
<path d="m1.5 1.5v458.87c0 166.31 134.31 301.13 300 301.13 165.69 0 300-134.82 300-301.13v-458.87h-600z" fill="#e20909"/>
<g transform="matrix(4.2744 0 0 4.2744 -2625.8 -2447.1)" stroke="#000">
<path d="m654.2 624.47s-7.2629-3.6551-12.326-7.4064c-5.913-4.3808-13.482-2.8526-15 2.5401-3.6553 12.986-10.164 15.481-9.278 24.599l9.0106-1.6042-9.0106 1.6042 0.13369 12.326c6.5413-1.5246 11.307-4.8253 15-9.1979l-6.1231-4.7326 0.13368-3.1284 3.7968 0.53475c-0.35356-5.5816-0.02828-11.059 4.1979-15.936 3.229 5.6049 4.3936 12.095 9.8663 16.738l10.401-17.807-0.80212 1.4706z" fill="#fff" fill-rule="evenodd" stroke-width="1px"/>
<path d="m718.4 669.6c16.974-25.028 36.337-9.1867 33.537 5.0351-2.8447 14.448-16.943 23.688-6.9328 33.361-0.87877 1.3976-2.3464 1.6174-3.9305 1.6042-5.7162-9.1294-2.4894-18.705 1.6265-28.748 3.4925-8.5222 6.7388-21.775-12.696-17.856 19.483-3.8739 15.809 9.257 12.696 17.856-4.0433 10.094-7.3387 19.522-1.6265 28.748-1.2665 0.53296-2.3863 1.3592-4.3316 0.53475-4.465-5.2032-2.8679-11.458-2.139-17.54-0.76979 6.1432-2.2341 12.425 2.139 17.54-8.1101 0.47345-10.665-11.765-6.2442-20.658 9.58-19.273 2.7137-26.699-10.494-16.481l-1.6042-3.3958z" fill="#fff" fill-rule="evenodd" stroke-width="1px"/>
<path d="m687.2 583.91c0.4296-1.3947 0.60278-2.1498 0.32343-3.9055-5.4102 0.22045-7.4128 2.7092-10.771 5.5273 4.7502 1.9073 6.4208 1.1931 10.448-1.6219z" fill="#fff" fill-rule="evenodd" stroke-width="1px"/>
<path d="m687.01 590.73c9.466 12.384 2.2116 24.075-3.7432 35.882l7.3262-2.0053 2.5792-4.4423-5.2264-3.0978 5.2264 3.0978c1.0695-1.8026 1.6003-3.4161 2.4455-5.6914l-6.2014-1.3369 6.2014 1.3369c0.4518-2.1507 1.3394-4.3382 1.5422-6.7379l-6.1393-1.3369 6.1393 1.3369c0.49028-2.3975 0.57666-4.7005 0.38485-7.1926l-6.3904 0.32094 6.3904-0.32094c-0.32938-2.3086-0.79338-4.5275-1.8716-6.3369l-5.4546 1.1231 5.4546-1.1231c-1.4048-2.7139-3.5229-4.4769-5.6684-6.2032l-2.9947 2.7273z" fill="#fff" fill-rule="evenodd" stroke-width="1px"/>
<path d="m735.75 613.94c2.2108-3.5294 5.1212-9.8663 2.5135-16.872-0.65596 2.6328-2.843 3.7346-4.4652 5.4011l-18.797 15.535 18.797-15.535c1.8275-2.9744 3.6936-12.757 0.93582-16.337-0.42782 2.7718-2.4058 3.9935-3.7968 5.8021l-30.936 31.07 30.936-31.07c1.1695-6.2448 0.56559-11.159-2.5401-14.198-10.036 19.264-27.201 27.415-38.396 47.139 16.296-2.1803 31.222-6.2778 45.749-10.936z" fill="#fff" fill-rule="evenodd" stroke-width="1px"/>
<path d="m694.14 697.68c-4.5039 3.566-4.6592 5.9407-5.0801 10.187-7.6245 4.1838-18.747 3.224-20.936 15.401-1.697-1.2058-3.8368-2.1903-4.1979-4.0642l-2.1926 2.9947-11.337-0.40107 11.337 0.40107 2.3263 9.5989c-6.3547 3.1627-13.779 2.0385-19.064 1.2032l5.4011-11.203c1.734-9.7697 14.656-9.3662 26.604-19.733-13.637-10.415-7.6353-20.316 3.2085-28.529 13.2 1.7912 13.541 12.494 13.931 24.144z" fill="#fff" fill-rule="evenodd" stroke-width="1px"/>
<path d="m692.67 681.4c0.95891 9.2274-13.172 7.9627-8.4342 0.45628l-6.5658-6.713c5.6563-0.53963 10.672 1.4851 15 6.2568z" fill="#fff" fill-rule="evenodd" stroke-width="1px"/>
<path d="m722.46 705.27c-19.543-13.317 14.974-33.872-16.127-42.692-5.6598-1.6051-11.928-3.752-20.112-10.9-3.5512-0.57765-6.3401-1.0361-9.4328-1.7859 3.188 0.86003 5.7645 1.2227 9.4328 1.7859 25.059-1.2859 44.068 8.7757 59.916-16.323l-7.6049 2.2458c-16.135 6.6259-34.12 4.7666-51.07 7.2727 17.032-2.3839 35.032-0.57713 51.07-7.2727 7.1542-4.8067 13.03-11.143 13.32-18.322-2.0426 1.4605-4.0852 2.3114-6.1278 3.1351-19.169 10.492-39.018 10.767-58.529 16.123 19.459-5.3926 39.448-5.5856 58.529-16.123 3.2881-4.9359 7.0649-9.6086 5.8822-16.952-22.697 23.626-69.98 20.068-76.604 32.54 6.6549-12.398 53.799-8.9917 76.604-32.54-21.109 10.925-44.343 14.623-67.139 19.813-15.937 3.0111-15.403 9.3872-15.267 15.802-0.11188-6.398-0.5904-12.876 15.267-15.802 3.5107-10.447 13.345-18.918 3.3958-34.946 2.726-1.8729 4.5912-4.6067 5.5348-8.2621-3.7055 0.46787-7.4889 0.15557-10.856 4.0106-6.5923-0.53946-14.922-7.7388-19.599-0.93581-8.5964 0.44152-23.003-13.769-24.332 5 4.8536 0.15657 10.107-0.40601 11.524 5.9358l-10.401 1.6578c1.8176 2.8007 3.3099 5.9206 8.3156 2.9947 4.8271-2.8215 9.0162 2.1737 14.728 2.2728 1.4037 2.1917 2.0286 4.5781 7.5182 5.7484 4.3634 0.51122 8.2767-1.1234 9.7061-5.7486-1.3804 4.6261-5.277 6.2213-9.7061 5.7486 0.46182 13.601-19.004 5.5519-20.428 21.925-9.309 3.8147-5.6403 11.09-4.8663 17.594 2.5597-2.9662 5.0897-2.902 7.5936-3.7968-2.5312 0.94395-5.0624 0.89916-7.5936 3.7968-4.1212 4.4955-8.7661 12.092-12.941 14.144-6.9066 3.6117-7.19 9.9996-2.0589 15.588 9.2593 13.351 3.2883 15.905 8.5294 19.599l6.6042-8.2621-6.6042 8.2621 10.802 9.3316c2.064-5.368 4.0932-10.752 2.3263-17.861l-6.5241 0.26737-1.9252-3.1284 4.8663-0.93582c-5.3233-4.5229-19.203-14.176-3.0748-17.273l11.337-2.2727c4.0844-1.3669 5.3503-4.8783 5.1337-9.4652 0.22165 4.6048-1.0854 8.063-5.1337 9.4652 9.3217 11.908 16.559 4.0241 34.198 14.011l0.40106-2.861-0.40106 2.861c-4.6226 19.861 7.2042 22.274 16.604 28.128-8.8584 22.263-14.077 16.593-15.08 25.936l11.471 0.26738-11.471-0.26738-6.5241 10.401c6.5313 2.4778 13.246 2.0229 20.134-1.2032l-2.139-8.9305 1.0695-4.4652 4.5111 2.3072c-0.8088-11.877 4.3325-16.706 13.348-26.643z" fill="#fff" fill-rule="evenodd" stroke-width="1px"/>
<path d="m647.53 585.67c0.33604-3.8482-0.29962 0.3294-2.488 1.8067 2.1211-1.2352 1.7738-0.76158 2.488-1.8067z" fill="#fff" fill-rule="evenodd" stroke-width="1px"/>
<path d="m669.19 587.97c-0.79098 2.186 0.76838 3.1911 2.6898 3.6539 0.3322-2.0797 0.10236-1.3922 0.60782-2.6875l-3.032-0.84688c-2.4659 0.69801-0.13917-0.06297-0.17188-0.08828l-0.09375-0.03125z"/>
<path d="m665.19 586.62 4.0945 1.3781c0.49973 1.2737 0.38463 2.7231 2.5274 3.5273-0.31195-0.97516-0.91567-2.0476-0.47266-2.7711l7.6617 1.2438c-3.4906 3.7872-11.004 8.7098-13.811-3.3781z" fill="#fff" fill-rule="evenodd" stroke-width="1px"/>
</g>
<g>
<path d="m1.5 1.5v458.87c0 166.31 134.31 301.13 300 301.13 165.69 0 300-134.82 300-301.13v-458.87h-600z" fill="url(#a)"/>
<path d="m1.5 1.5v458.87c0 166.31 134.31 301.13 300 301.13 165.69 0 300-134.82 300-301.13v-458.87h-600z" fill="none" stroke="#000" stroke-width="3"/>
</g>
</svg>
